X: 34474
T: Ridee
R: three-two
M: 3/2
K: Bminor
|:Bf fB f2|ef gf ed|cB cd ef|e2 ce dc:|
|:fB cd B2|gB cd B2|ed ce dc|AB cd cB:|
|:fc f2 ef|gf ed cB|cd ef e2|ce dc B2:|
|:fB cd B2|gB cd B2|AB cd ed|ce dc cB:|

